X: 1
T:Top of Cork Road -- Jig
M:6/8
L:1/8
R:jig
B:Ryan's Mammoth Collection
N:85 439
Z:Contributed by Ray Davies,  ray:davies99.freeserve.co.uk
K:D
vf/e/|\
dAF DFA | Bed cBA | dcd efg | fdf ece |
dAF DFA | Bed cBA | dcd efg | fdd d2:|
|:ug|\
fdf fga | ecd efg | dcd fed | cAA A2c |
BGB Bcd | AFA ABc | dcd efg | fdd d2:|
